docs/.gitbook/assets/icon-moon-up-16@light.svg

<svg width="32" height="32" viewBox="0 0 16 16" fill="none" xmlns="http://www.w3.org/2000/svg">
<rect x="0" y="0" width="16" height="16" fill="#fff"/>
<path fill-rule="evenodd" clip-rule="evenodd" d="M12.75 3.56066V6.2562C12.75 6.67042 12.4143 7.0062 12 7.0062C11.5858 7.0062 11.25 6.67042 11.25 6.2562V3.56066L10.702 4.10876C10.4091 4.40165 9.93419 4.40165 9.64129 4.10876C9.3484 3.81586 9.3484 3.34099 9.64129 3.0481L11.4697 1.21967C11.6104 1.07902 11.8011 1 12 1C12.199 1 12.3897 1.07902 12.5304 1.21967L14.3588 3.0481C14.6517 3.34099 14.6517 3.81586 14.3588 4.10876C14.0659 4.40165 13.591 4.40165 13.2981 4.10876L12.75 3.56066ZM8.45512 2.19753C8.62523 1.96697 8.64911 1.65964 8.51667 1.40556C8.38423 1.15149 8.1186 0.995077 7.83218 1.0025C4.04387 1.10067 1 4.19403 1 8.0001C1 11.8681 4.14383 15.0001 8.01752 15.0001C11.6398 15.0001 14.6228 12.2623 14.9958 8.74403C15.025 8.46835 14.8998 8.19903 14.6702 8.04371C14.4406 7.88839 14.144 7.87241 13.899 8.00215C13.3011 8.3188 12.6123 8.5001 11.876 8.5001C9.53871 8.5001 7.69283 6.68274 7.69283 4.5001C7.69283 3.64387 7.97346 2.85034 8.45512 2.19753ZM2.5 8.0001C2.5 5.48832 4.19006 3.3675 6.50065 2.71046C6.30134 3.27126 6.19283 3.87342 6.19283 4.5001C6.19283 7.56416 8.76429 10.0001 11.876 10.0001C12.3373 10.0001 12.7863 9.9468 13.2167 9.84602C12.4561 11.9745 10.4162 13.5001 8.01752 13.5001C4.9683 13.5001 2.5 11.0357 2.5 8.0001Z" fill="#000"/>
</svg>

<svg xmlns="http://www.w3.org/2000/svg" width="32" height="32" fill="none" viewBox="0 0 16 16"><path fill="#fff" d="M0 0h16v16H0z"/><path fill="#000" fill-rule="evenodd" d="M12.75 3.56v2.696a.75.75 0 1 1-1.5 0V3.561l-.548.548a.75.75 0 0 1-1.06-1.06l1.828-1.83a.75.75 0 0 1 1.06 0l1.829 1.83a.75.75 0 1 1-1.06 1.06zM8.455 2.199a.75.75 0 0 0-.623-1.195C4.044 1.1 1 4.194 1 8c0 3.868 3.144 7 7.018 7a7.01 7.01 0 0 0 6.978-6.256.75.75 0 0 0-1.097-.742 4.3 4.3 0 0 1-2.023.498c-2.337 0-4.183-1.817-4.183-4 0-.856.28-1.65.762-2.302M2.5 8a5.505 5.505 0 0 1 4-5.29 5.3 5.3 0 0 0-.307 1.79c0 3.064 2.571 5.5 5.683 5.5q.693-.001 1.34-.154A5.52 5.52 0 0 1 8.019 13.5C4.968 13.5 2.5 11.036 2.5 8" clip-rule="evenodd"/></svg>
